assets/modpacks/preview/ForgePackBase.svg

<svg width="953" height="500" viewBox="0 0 953 500" fill="none" xmlns="http://www.w3.org/2000/svg">
<rect width="952.381" height="500" fill="url(#paint0_linear_6_5)"/>
<path d="M372.47 205H318.97V240.75H364.47V276.5H318.97V348H283.22V169.25H372.47V205ZM437.622 348H401.872V169.5H472.122C541.622 169.5 541.372 279.75 472.122 279.75H437.622V348ZM437.622 245H469.122C493.122 245 493.122 205 469.122 205H437.622V245ZM588.507 204.75V240.75H610.007H620.257C630.507 240.75 636.757 232.5 636.757 222.75C636.757 212.75 630.507 204.75 620.257 204.75H588.507ZM552.507 348V169H623.257C655.007 169 674.757 191.75 674.007 223.25C673.507 236.75 668.757 250.75 657.507 258.5C669.257 266.5 676.007 280.25 676.007 294.25C676.007 324.25 652.257 348 623.257 348H552.507ZM588.507 276.5V312.25H610.007H620.257C630.507 312.25 638.257 304.25 638.257 294.25C638.257 284.25 630.507 276.5 620.257 276.5H588.507Z" fill="white"/>
<defs>
<linearGradient id="paint0_linear_6_5" x1="152.381" y1="61" x2="413" y2="626.77" gradientUnits="userSpaceOnUse">
<stop stop-color="#262626"/>
<stop offset="0.46875" stop-color="#0D0D0D"/>
<stop offset="1" stop-color="#3A3A3A"/>
</linearGradient>
</defs>
</svg>

<svg xmlns="http://www.w3.org/2000/svg" width="953" height="500" fill="none"><circle cx="476" cy="250" r="250" fill="url(#a)"/><path fill="#fff" d="M372.47 205h-53.5v35.75h45.5v35.75h-45.5V348h-35.75V169.25h89.25V205Zm65.152 143h-35.75V169.5h70.25c69.5 0 69.25 110.25 0 110.25h-34.5V348Zm0-103h31.5c24 0 24-40 0-40h-31.5v40Zm150.885-40.25v36h31.75c10.25 0 16.5-8.25 16.5-18 0-10-6.25-18-16.5-18h-31.75Zm-36 143.25V169h70.75c31.75 0 51.5 22.75 50.75 54.25-.5 13.5-5.25 27.5-16.5 35.25 11.75 8 18.5 21.75 18.5 35.75 0 30-23.75 53.75-52.75 53.75h-70.75Zm36-71.5v35.75h31.75c10.25 0 18-8 18-18s-7.75-17.75-18-17.75h-31.75Z"/><defs><linearGradient id="a" x1="306" x2="646" y1="61" y2="448.5" gradientUnits="userSpaceOnUse"><stop stop-color="#262626"/><stop offset=".469" stop-color="#0D0D0D"/><stop offset="1" stop-color="#3A3A3A"/></linearGradient></defs></svg>
